X:1081
%%etbk:tnset id:95,pos:1,rep:3
%%etbk:site1 http://www.thesession.org/tunes/display/5
%%etbk:color #ffffcc
T: Blarney Pilgrim, The
Z: Piano Box Version by Martin Fleischmann
H: Created 2013-02-19 /  Last Modified 2013-02-19
M: 6/8
L: 1/8
R: jig
K: Dmix
|: "G"!1!D!2!D!1!D !1!DE!4!G | "D"!2!A2A ABc | "G"!3!BAG A!1!G!2!E | !4!G2A GED |
"G"!1!D !3!(3D!2!D!1!D !1!DE!4!G | "D"!2!A{c}AA ABc | "G"!3!BAG {c}A!1!G!2!E | !4!GED !1!D3:|
|: "G"!5!dDd d!3!B!1!G | "D"!2!AGA "G"!3!B!1!G!2!E | !5!dGd dBG | "D"!2!ABA "G"!1!G !2!(3B!3!c!1!d |
"G"!4!g2!2!e !1!d!3!B!1!G | !2!AGA B!1!G!2!E | !3!B2G AGA | !3!B!1!G!2!E !1!G3:|
|: "D"!2!A!1!DD !3!B!1!DD | !2!A!1!DD !2!ABc | "G"!3!BAG {c}A!1!G!2!E | !4!G2A GED |
"D"!2!A!1!DD !3!B!1!DD | !2!A!1!DD !2!ABc | "G"!3!BAG {c}A!1!G!2!E | !4!GED !1!D3:|






